!!!OTL: Teutscher Freiheit Schlachtruf.
!!!OTL-incipit:DER GOTT DER EISEN WACHSEN LIESS
!!!COM: A. Methfessel
!!!ARE: Europa, Mitteleuropa, Deutschland
!!!SCT: F0385
!!!TXL: @@DE
!!!YEM: Copyright 1995, estate of Helmut Schaffrath.
**kern	**text
*ICvox	*
*clefG2	*
*M4/4	*
*met(c)	*
*k[b-e-a-]	*
*E-:	*
!LO:TX:a:t=Stark und feſt.	!
!LO:TX:a:t=P:only the highest voice encoded:problem	!
{4b-/	1._Der
=1	=1
4.ee-/	Gott,
8e-	der
4g	Ei-
4e-	-ſen
=2	=2
4.cc/	wachſen
8cc/	.
4cc/}	ließ,
{4cc/	der
=3	=3
4.b-/	woll-
8a-	-te
4g	kei-
4f	-ne
=4	=4
4g	Knechte;
4e-	.
4r}	.
{4b-/	drum
=5	=5
4.ee-/	gab
8e-	er
4g	Sä-
4e-	-bel,
=6	=6
4.cc/	Schwert
8cc/	und
4cc/}	Spieß
{4ff/	dem
=7	=7
4.dd/	Mann
8cc/	in
4b-/	ſei-
4cc/	-ne
=8	=8
4dd/	Rechte;
4b-/	.
4r}	.
{4b-/	drum
=9	=9
4.b-/	gab
8b-/	er
4.cc/	ihm
8cc/	den
=10	=10
4.dd/	kühnen
8dd	.
4.ee-}	Muth,
{8b-	den
=11	=11
4.aa-	Ʒorn
8ff	der
4gg	frei-
4ee-	-en
=12	=12
(8.ddL	Re-
16ee-J)	.
4ff	-de,
4r}	.
!LO:TX:a:t=Das ʒweite Mal Alle.	!
{4b-	daß
=13	=13
4.gg	er
8ff	be-
4ee-	-ſtän-
4dd	-de
=14	=14
4cc/	bis
4b-/	aufs
4a-}	Blut,
{4g	bis
=15	=15
4f	in
4cc/	den
4b-/	Tod
4a-/	die
=16	=16
(>2g	Feh-
2f)	.
=17	=17
4e-	-de.
4r	.
4r}	.
{4b-	daß
=18	=18
4.gg	er
8ff	be-
4ee-	-ſtän-
4dd	-de
=19	=19
4cc/	bis
4b-/	aufs
4a-}	Blut,
{4g	bis
=20	=20
4f	in
4cc/	den
4b-/	Tod
4a-/	die
=21	=21
(>2g	Feh-
2f)	.
=22	=22
4e-	-de.
4r	.
4r}	.
==	==
!!!AGN: Vaterlands -, Heimat - Lied, nationalistisch, Krieg
!!!ONB: ESAC (Essen Associative Code) Database: FINK
!!!AMT: simple quadruple
!!!AIN: vox
!!!EED: Helmut Schaffrath
!!!EEV: 1.0
!!!RDF**kern: > = above
!!!GTL: Vaterlands- und Heimathslieder
!!Text: G. M. Arndt
!!!source: Musikalischer Hausschatz der Deutschen. Eine Sammlung von über 1000 Liedern und Gesängen mit Singstimmen und Klavierbegleitung. Leipzig, Litterarisches Verlags-Haus.
!!!page: 230
!!!URL-scan: https://www.digitale-sammlungen.de/en/view/bsb11144622?page=220,221
!!!ENC: Anna Maria Matuszewska
!!!EEV: 2024/07/30
*-	*-
